X:1
T:Title
L:1/8
Q:1/4=120
M:4/4
K:G
V:1 treble nm="Church Organ, Staff"
V:1
 B,2 B2- B/ z/ G F2 | E2 F2 G2 E2 | G2 d2- d/ z/ B A2 | G2 A4 B2 | B2 e2 B2 c2- | cc d2 A2 B2- | %6
w: By~J.~F.~Bridge,~Mus.~Doc * * * *||||||
 BB B2 A2 G2 | A2 B6 | B2 B2- B/ z/ B c2 | e2 d2 A2 B2 | G2 E2 G2 FG | A2 c4 B2 | %12
w: ||||||
 B2 e2- e/ z/ B c2 | B2 A2- A/ z/ G F2 | E2 B2- B/ z/ G F2 | G2 E6 |] %16
w: ||||

